X:1
T:Gloria Viktoria
T:Sieg Heil Viktoria
T:Herms Niel arr. by b3cquerel
T:Waffen-SS-Lied ~ c. 1941
C:arr. by b3cquerel
%%score { 1 | 2 }
L:1/8
Q:1/4=120
M:4/4
K:C
V:1 treble nm="Piano" snm="Pno."
V:2 bass 
V:1
 cd | [Gce]2 [Gce]2 [GBe]2 [G_Be]2 | [Acf]2 [cfa]2 [Beg]2 [Adf]2 | [Gce]3 [Gc] [FAd]2 [DFB]2 | %4
 [EGc]2 (3[EGc][EGc][EGc] .[EGc]2 G2 | [Gc]2 [Gc]2 [Gc]2 [Gc]2 | [Gce]3 [Bd] [Gc]2 [FBd]2 | %7
 [Gce]3 c [GBd]3 B | [EGc]6 G2 | [Gc]2 [Gc]2 [Gc]2 [Gc]2 | [Gce]3 [Bd] [Gc]2 [FBd]2 | %11
 [Gce]3 c [GBd]3 B | [EGc]6 cd |: [ce]2 [ce]2 [ce]2 [ceg]2 | [df]3 [ce] [Bd]4 | [df]3 [ce] [Bd]4 | %16
 [eg]3 [df] [ce]2 [Gc][FBd] | [EGce]2 [EGce]2 [EGBe]2 [EG_Be]2 | [FAcf]2 [Acfa]2 [GBeg]2 [FAdf]2 | %19
 [EGce]3 [Gc] [DFAd]2 [DFB]2 |1 [CEGc]6 cd :|2 [CEGc]6 [^CEA]2 |:[K:D] [Ad]2 [Ad]2 [Ad]2 [Ad]2 | %23
 [Adf]3 [ce] [Ad]2 [Gce]2 | [Adf]3 d [Ace]3 c | [FAd]6 A2 | [Ad]2 [Ad]2 [Ad]2 [Ad]2 | %27
 [Adf]3 [ce] [Ad]2 [Gce]2 | [Adf]3 d [Ace]3 c | [FAd]6 [Dd][Ee] |: %30
 [Fdf]2 [Fdf]2 [Fdf]2 [Adfa]3/2 z/4 (f/4 | [Geg]3) [Fdf] [Ece]7/2 z/4 (f/4 | %32
 [Geg]3) [Fdf] [Ece]7/2 z/4 (^g/4 | [Afa]3) [Geg] [Fdf]2 [DAd][EGce] | %34
 [FAdf]2 [FAdf]2 [FAcf]2 [FA=cf]2 | [GBdg]2 [Bdgb]2 [Acfa]2 [GBeg]2 | %36
 [FAdf]3 [Ad] [EGBe]2 [EGc]2 |1 [DFAd]6 [Dd][Ee] :| [DFAd]6 !arpeggio![fad']2- | [fad']4 z4 |] %40
V:2
 z2 | [E,G,C]2 [E,G,C]2 [E,G,B,]2 [E,G,_B,]2 | [C,F,A,]2 [C,E,A,]2 [B,,D,G,]2 [B,,D,F,]2 | %3
 (3C,E,G, [E,G,C]2 (3B,,D,F, [D,F,B,]2 | [C,E,G,C]2 (3[G,,G,][A,,A,][B,,B,] .[C,C]2 z2 | %5
 [E,G,C]2 [E,G,C]2 [E,G,C]2 [E,G,C]2 | [E,G,C]2 [E,G,C]2 [E,G,C]2 [D,F,B,]2 | %7
 .[E,G,C]2 (3B,,D,F, .[D,F,B,]2 (3G,,C,E, | [E,G,C]2 (3[G,,G,][A,,A,][B,,B,] .[C,C]2 [G,,G,]2 | %9
 [E,G,C]2 [E,G,C]2 [E,G,C]2 [E,G,C]2 | [E,G,C]2 [E,G,C]2 [E,G,C]2 [D,F,B,]2 | %11
 .[E,G,C]2 (3B,,D,F, .[D,F,B,]2 (3G,,C,E, | [E,G,C]2 (3[G,,G,][A,,A,][B,,B,] .[C,C]2 G,,B,, |: %13
 C,[E,G,C]G,,[E,G,C] C,[E,G,C]G,,[E,G,C] | B,,[D,G,B,]G,,[D,G,B,] B,,[D,G,B,]G,,[D,G,B,] | %15
 B,,[D,G,B,]G,,[D,G,B,] B,,[D,G,B,]G,,[D,G,B,] | C,[E,G,C]G,,[E,G,C] C,[E,G,C]G,,[F,B,] | %17
 C,[E,G,C]C,[E,G,C] B,,[E,G,B,]_B,,[E,G,_B,] | A,,[C,E,A,]B,,[D,F,B,] C,[E,G,C]D,[E,G,C] | %19
 (3C,E,G, [E,G,C]2 (3B,,D,F, [D,F,B,]2 |1 E,[G,,C,][A,,D,]B,, [C,E,G,]G,,A,,B,, :|2 %21
 E,[G,,C,][A,,D,]B,, .[C,E,G,]2 (3(A,B,^C) |:[K:D] [F,A,D]2 [F,A,D]2 [F,A,D]2 [F,A,D]2 | %23
 [F,A,D]2 [F,A,D]2 [F,A,D]2 [E,G,C]2 | .[F,A,D]2 (3C,E,G, .[E,G,C]2 (3A,,D,F, | %25
 [F,A,D]2 (3[A,,A,][B,,B,][C,C] .[D,D]2 [A,,A,]2 | [F,A,D]2 [F,A,D]2 [F,A,D]2 [F,A,D]2 | %27
 [F,A,D]2 [F,A,D]2 [F,A,D]2 [E,G,C]2 | .[F,A,D]2 (3C,E,G, .[E,G,C]2 (3A,,D,F, | %29
 [F,A,D]2 (3[A,,A,][B,,B,][C,C] .[D,D]2 [A,,A,][C,C] |: %30
 [D,D][F,A,D]A,,[F,A,D] D,[F,A,D]A,,[F,A,D] | C,[E,A,C]A,,[E,A,C] C,[E,A,C]A,,[E,A,C] | %32
 C,[E,A,C]A,,[E,A,C] C,[E,A,C]A,,[E,A,C] | D,[F,A,D]A,,[F,A,D] D,[F,A,D][A,,D,A,][G,,C,G,] | %34
 [D,F,][F,A,D][F,,D,][F,A,D] [F,,C,][F,A,C][F,,=C,][F,A,=C] | %35
 [G,,B,,][D,F,B,]C,[E,G,C] [A,,D,][F,A,D][G,,E,G,][F,A,D] | %36
 (3[F,,D,F,]F,A, [F,A,D]2 (3[C,E,A,][E,B,][G,D] [E,G,C]2 |1 %37
 [D,F,D][A,,D,][B,,E,]C, [D,F,A,][A,,A,][B,,B,][C,C] :| %38
 [D,F,][A,,D,][B,,E,]C, [D,F,A,]2 [D,,D,]2- | [D,,D,]4 z4 |] %40

